!! 00000] TT[
!!!OTL: Guizhou Shange
!!!ARE: Asia, China,ÿGuizhou
!! Ethnic Group: Han
!! MM, ZHONGGUO MINGE XUAN S.225
!!!SCT: C1289
!!!YEM: Copyright 1995, estate of Helmut Schaffrath.
**kern
*ICvox
*Ivox
*M2/4
*k[]
*C:
{8g
8g
8a
8cc
=1
8a
8g
16a
16cc
8dd
=2
[2dd
=3
2dd]}
=4
{8a
8cc
8dd
16dd
16cc
=5
8a
8g
8a
8cc
=6
[2g
=7
2g]}
=8
{8a
8cc
8dd
8dd
=9
4dd
4cc
=10
4a
4g}
=11
{8a
8cc
8dd
16dd
16cc
=12
8a
8g
8a
8cc
=13
[2g
=14
2g]}
==
!!!AGN: Shange
!! Verzierungen
!!!ONB: ESAC (Essen Associative Code) Database: CHINA
!!!AMT: simple duple
!!!AIN: vox
!!!EED: Helmut Schaffrath
!!!EEV: 1.0
*-
!!!ONB: Tied note syntax fixed by Craig Sapp, 2004/05/03/
